!!!OTL: HORCHT IHR LIEBEN LEUTE
!!!ARE: Europa, Mitteleuropa, Deutschland
!!!SCT: F0233
!!!YEM: Copyright 1995, estate of Helmut Schaffrath.
**kern
*ICvox
*Ivox
*M2/4
*k[b-e-a-]
*E-:
=1
{4e-
4e-
=2
8ee-
8ee-
8b-
8b-}
=3
{8g
8g
8f
8f
=4
4e-
4r}
=5
{4e-
4e-
=6
8ee-
8ee-
8b-
8b-}
=7
{8g
8g
8f
8f
=8
4e-
4r}
=9
{8b-
8b-
8f
8b-
=10
8cc
8dd
4b-}
=11
{4e-
4ee-
=12
4e-
4r}
=13
{4cc
4b-
=14
4e-
4r}
==
!!!AGN: Jugend - Lied
!!!ONB: ESAC (Essen Associative Code) Database: FINK
!!!AMT: simple duple
!!!AIN: vox
!!!EED: Helmut Schaffrath
!!!EEV: 1.0
*-
